icons/modern/white-flag.svg

<svg width="32" height="32" viewBox="0 0 32 32" fill="none" xmlns="http://www.w3.org/2000/svg">
<g filter="url(#filter0_i_4_7853)">
<path fill-rule="evenodd" clip-rule="evenodd" d="M7.22616 2.14375C7.75084 2.14375 8.17616 2.56908 8.17616 3.09375V28.9063C8.17616 29.4309 7.75084 29.8563 7.22616 29.8563C6.70149 29.8563 6.27617 29.4309 6.27617 28.9063V3.09375C6.27617 2.56908 6.70149 2.14375 7.22616 2.14375Z" fill="#9D9DA2"/>
<path fill-rule="evenodd" clip-rule="evenodd" d="M7.22616 2.14375C7.75084 2.14375 8.17616 2.56908 8.17616 3.09375V28.9063C8.17616 29.4309 7.75084 29.8563 7.22616 29.8563C6.70149 29.8563 6.27617 29.4309 6.27617 28.9063V3.09375C6.27617 2.56908 6.70149 2.14375 7.22616 2.14375Z" fill="url(#paint0_radial_4_7853)"/>
<path fill-rule="evenodd" clip-rule="evenodd" d="M7.22616 2.14375C7.75084 2.14375 8.17616 2.56908 8.17616 3.09375V28.9063C8.17616 29.4309 7.75084 29.8563 7.22616 29.8563C6.70149 29.8563 6.27617 29.4309 6.27617 28.9063V3.09375C6.27617 2.56908 6.70149 2.14375 7.22616 2.14375Z" fill="url(#paint1_radial_4_7853)"/>
</g>
<g filter="url(#filter1_iii_4_7853)">
<path d="M9.45144 5.3125C8.42679 4.93154 7.47012 4.81596 6.85767 4.81258C6.51378 4.81069 6.27617 5.10051 6.27617 5.44441V17.6419C6.27617 17.9236 6.50934 18.1481 6.79095 18.154C9.1059 18.2029 9.63712 19.0625 12.2843 19.0625C15.1171 19.0625 18.2924 17.1562 21.0319 17.1562C22.889 17.1562 24.9071 17.8407 26.048 18.3538C26.2892 18.4623 26.573 18.2895 26.573 18.025V5.68753C26.573 5.40072 26.4086 5.13715 26.1479 5.01759C21.0507 2.68004 18.5478 4.24431 15.4284 5.125C13.4361 5.6875 11.6617 5.95312 9.45144 5.3125Z" fill="#E8E4EC"/>
<path d="M9.45144 5.3125C8.42679 4.93154 7.47012 4.81596 6.85767 4.81258C6.51378 4.81069 6.27617 5.10051 6.27617 5.44441V17.6419C6.27617 17.9236 6.50934 18.1481 6.79095 18.154C9.1059 18.2029 9.63712 19.0625 12.2843 19.0625C15.1171 19.0625 18.2924 17.1562 21.0319 17.1562C22.889 17.1562 24.9071 17.8407 26.048 18.3538C26.2892 18.4623 26.573 18.2895 26.573 18.025V5.68753C26.573 5.40072 26.4086 5.13715 26.1479 5.01759C21.0507 2.68004 18.5478 4.24431 15.4284 5.125C13.4361 5.6875 11.6617 5.95312 9.45144 5.3125Z" fill="url(#paint2_linear_4_7853)"/>
</g>
<defs>
<filter id="filter0_i_4_7853" x="6.27617" y="1.64375" width="2.65" height="28.2125" filterUnits="userSpaceOnUse" color-interpolation-filters="sRGB">
<feFlood flood-opacity="0" result="BackgroundImageFix"/>
<feBlend mode="normal" in="SourceGraphic" in2="BackgroundImageFix" result="shape"/>
<feColorMatrix in="SourceAlpha" type="matrix" values="0 0 0 0 0 0 0 0 0 0 0 0 0 0 0 0 0 0 127 0" result="hardAlpha"/>
<feOffset dx="0.75" dy="-0.5"/>
<feGaussianBlur stdDeviation="0.375"/>
<feComposite in2="hardAlpha" operator="arithmetic" k2="-1" k3="1"/>
<feColorMatrix type="matrix" values="0 0 0 0 0.411765 0 0 0 0 0.415686 0 0 0 0 0.431373 0 0 0 1 0"/>
<feBlend mode="normal" in2="shape" result="effect1_innerShadow_4_7853"/>
</filter>
<filter id="filter1_iii_4_7853" x="6.02617" y="3.69103" width="20.6469" height="15.5215" filterUnits="userSpaceOnUse" color-interpolation-filters="sRGB">
<feFlood flood-opacity="0" result="BackgroundImageFix"/>
<feBlend mode="normal" in="SourceGraphic" in2="BackgroundImageFix" result="shape"/>
<feColorMatrix in="SourceAlpha" type="matrix" values="0 0 0 0 0 0 0 0 0 0 0 0 0 0 0 0 0 0 127 0" result="hardAlpha"/>
<feOffset/>
<feGaussianBlur stdDeviation="2"/>
<feComposite in2="hardAlpha" operator="arithmetic" k2="-1" k3="1"/>
<feColorMatrix type="matrix" values="0 0 0 0 0.768627 0 0 0 0 0.745098 0 0 0 0 0.8 0 0 0 1 0"/>
<feBlend mode="normal" in2="shape" result="effect1_innerShadow_4_7853"/>
<feColorMatrix in="SourceAlpha" type="matrix" values="0 0 0 0 0 0 0 0 0 0 0 0 0 0 0 0 0 0 127 0" result="hardAlpha"/>
<feOffset dx="0.1" dy="-0.1"/>
<feGaussianBlur stdDeviation="0.175"/>
<feComposite in2="hardAlpha" operator="arithmetic" k2="-1" k3="1"/>
<feColorMatrix type="matrix" values="0 0 0 0 0.741176 0 0 0 0 0.705882 0 0 0 0 0.780392 0 0 0 1 0"/>
<feBlend mode="normal" in2="effect1_innerShadow_4_7853" result="effect2_innerShadow_4_7853"/>
<feColorMatrix in="SourceAlpha" type="matrix" values="0 0 0 0 0 0 0 0 0 0 0 0 0 0 0 0 0 0 127 0" result="hardAlpha"/>
<feOffset dx="-0.25" dy="0.15"/>
<feGaussianBlur stdDeviation="0.375"/>
<feComposite in2="hardAlpha" operator="arithmetic" k2="-1" k3="1"/>
<feColorMatrix type="matrix" values="0 0 0 0 0.988235 0 0 0 0 0.976471 0 0 0 0 1 0 0 0 1 0"/>
<feBlend mode="normal" in2="effect2_innerShadow_4_7853" result="effect3_innerShadow_4_7853"/>
</filter>
<radialGradient id="paint0_radial_4_7853" cx="0" cy="0" r="1" gradientUnits="userSpaceOnUse" gradientTransform="translate(8.0204 2.5705) rotate(152.613) scale(1.18498 1.36575)">
<stop stop-color="#A9AAAD"/>
<stop offset="1" stop-color="#A9AAAD" stop-opacity="0"/>
</radialGradient>
<radialGradient id="paint1_radial_4_7853" cx="0" cy="0" r="1" gradientUnits="userSpaceOnUse" gradientTransform="translate(8.17616 17.9764) rotate(-164.411) scale(2.91898 1.61122)">
<stop stop-color="#64616D"/>
<stop offset="1" stop-color="#64616D" stop-opacity="0"/>
</radialGradient>
<linearGradient id="paint2_linear_4_7853" x1="6.69089" y1="13.0998" x2="11.3898" y2="13.0998" gradientUnits="userSpaceOnUse">
<stop stop-color="#C7C1CD"/>
<stop offset="1" stop-color="#E8E4EC" stop-opacity="0"/>
</linearGradient>
</defs>
</svg>

<svg width="32" height="32" fill="none" xmlns="http://www.w3.org/2000/svg"><g filter="url(#a)" fill-rule="evenodd" clip-rule="evenodd"><path d="M7.226 2.144a.95.95 0 0 1 .95.95v25.812a.95.95 0 0 1-1.9 0V3.094a.95.95 0 0 1 .95-.95Z" fill="#9D9DA2"/><path d="M7.226 2.144a.95.95 0 0 1 .95.95v25.812a.95.95 0 0 1-1.9 0V3.094a.95.95 0 0 1 .95-.95Z" fill="url(#b)"/><path d="M7.226 2.144a.95.95 0 0 1 .95.95v25.812a.95.95 0 0 1-1.9 0V3.094a.95.95 0 0 1 .95-.95Z" fill="url(#c)"/></g><g filter="url(#d)"><path d="M9.451 5.313a7.857 7.857 0 0 0-2.593-.5c-.344-.002-.582.288-.582.631v12.198a.52.52 0 0 0 .515.512c2.315.049 2.846.909 5.493.909 2.833 0 6.008-1.907 8.748-1.907 1.857 0 3.875.685 5.016 1.198.241.108.525-.064.525-.329V5.688a.736.736 0 0 0-.425-.67c-5.097-2.338-7.6-.774-10.72.107-1.992.563-3.766.828-5.977.188Z" fill="#E8E4EC"/><path d="M9.451 5.313a7.857 7.857 0 0 0-2.593-.5c-.344-.002-.582.288-.582.631v12.198a.52.52 0 0 0 .515.512c2.315.049 2.846.909 5.493.909 2.833 0 6.008-1.907 8.748-1.907 1.857 0 3.875.685 5.016 1.198.241.108.525-.064.525-.329V5.688a.736.736 0 0 0-.425-.67c-5.097-2.338-7.6-.774-10.72.107-1.992.563-3.766.828-5.977.188Z" fill="url(#e)"/></g><defs><radialGradient id="b" cx="0" cy="0" r="1" gradientUnits="userSpaceOnUse" gradientTransform="matrix(-1.05217 .54509 -.62824 -1.21268 8.02 2.57)"><stop stop-color="#A9AAAD"/><stop offset="1" stop-color="#A9AAAD" stop-opacity="0"/></radialGradient><radialGradient id="c" cx="0" cy="0" r="1" gradientUnits="userSpaceOnUse" gradientTransform="matrix(-2.8116 -.78443 .433 -1.55195 8.176 17.976)"><stop stop-color="#64616D"/><stop offset="1" stop-color="#64616D" stop-opacity="0"/></radialGradient><filter id="a" x="6.276" y="1.644" width="2.65" height="28.212" filterUnits="userSpaceOnUse" color-interpolation-filters="sRGB"><feFlood flood-opacity="0" result="BackgroundImageFix"/><feBlend in="SourceGraphic" in2="BackgroundImageFix" result="shape"/><feColorMatrix in="SourceAlpha" values="0 0 0 0 0 0 0 0 0 0 0 0 0 0 0 0 0 0 127 0" result="hardAlpha"/><feOffset dx=".75" dy="-.5"/><feGaussianBlur stdDeviation=".375"/><feComposite in2="hardAlpha" operator="arithmetic" k2="-1" k3="1"/><feColorMatrix values="0 0 0 0 0.411765 0 0 0 0 0.415686 0 0 0 0 0.431373 0 0 0 1 0"/><feBlend in2="shape" result="effect1_innerShadow_4_7853"/></filter><filter id="d" x="6.026" y="3.691" width="20.647" height="15.521" filterUnits="userSpaceOnUse" color-interpolation-filters="sRGB"><feFlood flood-opacity="0" result="BackgroundImageFix"/><feBlend in="SourceGraphic" in2="BackgroundImageFix" result="shape"/><feColorMatrix in="SourceAlpha" values="0 0 0 0 0 0 0 0 0 0 0 0 0 0 0 0 0 0 127 0" result="hardAlpha"/><feOffset/><feGaussianBlur stdDeviation="2"/><feComposite in2="hardAlpha" operator="arithmetic" k2="-1" k3="1"/><feColorMatrix values="0 0 0 0 0.768627 0 0 0 0 0.745098 0 0 0 0 0.8 0 0 0 1 0"/><feBlend in2="shape" result="effect1_innerShadow_4_7853"/><feColorMatrix in="SourceAlpha" values="0 0 0 0 0 0 0 0 0 0 0 0 0 0 0 0 0 0 127 0" result="hardAlpha"/><feOffset dx=".1" dy="-.1"/><feGaussianBlur stdDeviation=".175"/><feComposite in2="hardAlpha" operator="arithmetic" k2="-1" k3="1"/><feColorMatrix values="0 0 0 0 0.741176 0 0 0 0 0.705882 0 0 0 0 0.780392 0 0 0 1 0"/><feBlend in2="effect1_innerShadow_4_7853" result="effect2_innerShadow_4_7853"/><feColorMatrix in="SourceAlpha" values="0 0 0 0 0 0 0 0 0 0 0 0 0 0 0 0 0 0 127 0" result="hardAlpha"/><feOffset dx="-.25" dy=".15"/><feGaussianBlur stdDeviation=".375"/><feComposite in2="hardAlpha" operator="arithmetic" k2="-1" k3="1"/><feColorMatrix values="0 0 0 0 0.988235 0 0 0 0 0.976471 0 0 0 0 1 0 0 0 1 0"/><feBlend in2="effect2_innerShadow_4_7853" result="effect3_innerShadow_4_7853"/></filter><linearGradient id="e" x1="6.691" y1="13.1" x2="11.39" y2="13.1" gradientUnits="userSpaceOnUse"><stop stop-color="#C7C1CD"/><stop offset="1" stop-color="#E8E4EC" stop-opacity="0"/></linearGradient></defs></svg>
